X:1
T:The Bonny Wee Window
M:9/8
L:1/8
K:C
 EF| GEG G3- GG G| ccc G3- GE G| cBc Adc BAB| c6- cG G| GEG G3- GG G|\
 ccc G3- G2 G| cBc| A d2- d2 c| BAB c3- cE F| GAG E C2- C2 E| FGA F D2- D2|\
 E| F/2F/2 FG A d2- d2 c| BAB c3- c||

